X: 2
T: A Bruxa
R: waltz
M: 3/4
L: 1/8
K: Amin
|: "Am"ec BA Bc | e2 c2 Ad | "Dm"cB F2 c2 | "E"B6 |
| "Am"ec BA Bc | e2 c2 Ad | "Dm"cB F2 B2 | "Am"A6 :|
|: "Am"AB c2 d2 | e6 | "Dm"fe d2 a2 | "Am"e6 :|
|: "G"gf ed ef | "C"e2 c4 | "E"ed cB cd | "Am"c2 A4 |
| "Dm"dc BA Bc | B2 F2 EF | "E"FE E2 ^G2 |1 "Am"A2c2e2:|2 "Am"A6 |]


Tune 4194	Setting 26795

